images/Instagram.svg

<svg width="33" height="33" viewBox="0 0 33 33" fill="none" xmlns="http://www.w3.org/2000/svg">
<g clip-path="url(#clip0_1_324)">
<path d="M16.5911 3.80908C20.7511 3.80908 21.2489 3.82686 22.8844 3.89797C24.4133 3.96908 25.2311 4.21797 25.7822 4.4313C26.5111 4.73353 27.0267 5.05353 27.5778 5.60464C28.1111 6.13797 28.4667 6.6713 28.7333 7.38241C28.9467 7.9513 29.2133 8.76908 29.2667 10.298C29.3556 11.9335 29.3733 12.4313 29.3733 16.5913C29.3733 20.7513 29.3556 21.2491 29.2844 22.8846C29.2764 23.8742 29.0959 24.8548 28.7511 25.7824C28.4489 26.5113 28.1289 27.0269 27.5778 27.578C27.0444 28.1113 26.5111 28.4669 25.7822 28.7513C25.2311 28.9646 24.4133 29.2135 22.8844 29.2846C21.2489 29.3557 20.7511 29.3735 16.5911 29.3735C12.4311 29.3735 11.9333 29.3735 10.28 29.2846C9.2964 29.2745 8.32199 29.0941 7.4 28.7513C6.65333 28.4669 6.15556 28.1291 5.60444 27.578C5.05333 27.0446 4.71556 26.5113 4.43111 25.8002C4.08706 24.8662 3.90664 23.8799 3.89778 22.8846C3.82667 21.2491 3.80889 20.7513 3.80889 16.5913C3.80889 12.4313 3.80889 11.9335 3.89778 10.298C3.96889 8.76908 4.21778 7.9513 4.43111 7.40019C4.71556 6.6713 5.05333 6.15575 5.60444 5.60464C6.13778 5.0713 6.67111 4.71575 7.38222 4.44908C7.95111 4.23575 8.76889 3.96908 10.28 3.91575C11.9333 3.82686 12.4133 3.80908 16.5911 3.80908ZM16.5911 1.00019C12.36 1.00019 11.8267 1.01797 10.1556 1.08908C8.50222 1.16019 7.36444 1.44464 6.36889 1.80019C5.35556 2.20908 4.48444 2.76019 3.61333 3.61353C2.77778 4.48464 2.24444 5.35575 1.81778 6.36908C1.42667 7.36464 1.16 8.50242 1.10667 10.1557C1 11.8446 1 12.378 1 16.5913C1 20.8046 1.01778 21.3557 1.08889 23.0091C1.16 24.6802 1.44444 25.8002 1.8 26.7957C2.20889 27.8269 2.76 28.698 3.61333 29.5691C4.48444 30.4224 5.35556 30.9557 6.36889 31.3646C7.36444 31.7557 8.50222 32.0224 10.1556 32.0757C11.8267 32.1646 12.36 32.1824 16.5911 32.1824C20.84 32.1824 21.3556 32.1646 23.0267 32.0935C24.68 32.0224 25.8178 31.738 26.8133 31.3646C27.852 30.9747 28.7926 30.3618 29.5689 29.5691C30.44 28.698 30.9733 27.8269 31.3644 26.7957C31.7556 25.818 32.0222 24.6802 32.0933 23.0091C32.1644 21.3557 32.1822 20.8224 32.1822 16.5913C32.1822 12.3424 32.1822 11.8269 32.0933 10.1557C32.0709 8.86252 31.8305 7.58234 31.3822 6.36908C30.9871 5.32875 30.368 4.38802 29.5689 3.61353C28.7897 2.82435 27.85 2.21199 26.8133 1.81797C25.6015 1.36233 24.3211 1.11586 23.0267 1.08908C20.8826 1.00317 18.7367 0.97353 16.5911 1.00019Z" fill="black"/>
<path d="M16.6444 8.11132C14.5227 8.11132 12.4878 8.95417 10.9876 10.4545C9.48726 11.9548 8.64441 13.9896 8.64441 16.1113C8.64441 18.233 9.48726 20.2679 10.9876 21.7682C12.4878 23.2685 14.5227 24.1113 16.6444 24.1113C18.7661 24.1113 20.801 23.2685 22.3013 21.7682C23.8016 20.2679 24.6444 18.233 24.6444 16.1113C24.6444 13.9896 23.8016 11.9548 22.3013 10.4545C20.801 8.95417 18.7661 8.11132 16.6444 8.11132ZM16.6444 21.3202C15.9615 21.3202 15.2853 21.1857 14.6545 20.9244C14.0236 20.6631 13.4503 20.28 12.9675 19.7972C12.4846 19.3143 12.1016 18.7411 11.8402 18.1102C11.5789 17.4793 11.4444 16.8031 11.4444 16.1202C11.4444 15.4373 11.5789 14.7611 11.8402 14.1303C12.1016 13.4994 12.4846 12.9261 12.9675 12.4433C13.4503 11.9604 14.0236 11.5774 14.6545 11.316C15.2853 11.0547 15.9615 10.9202 16.6444 10.9202C18.0235 10.9202 19.3462 11.4681 20.3214 12.4433C21.2966 13.4184 21.8444 14.7411 21.8444 16.1202C21.8444 17.4993 21.2966 18.822 20.3214 19.7972C19.3462 20.7724 18.0235 21.3202 16.6444 21.3202ZM24.8755 9.88909C25.3706 9.88909 25.8454 9.69243 26.1955 9.34236C26.5455 8.99229 26.7422 8.5175 26.7422 8.02243C26.7422 7.52736 26.5455 7.05256 26.1955 6.7025C25.8454 6.35243 25.3706 6.15576 24.8755 6.15576C24.3804 6.15576 23.9057 6.35243 23.5556 6.7025C23.2055 7.05256 23.0089 7.52736 23.0089 8.02243C23.0089 8.5175 23.2055 8.99229 23.5556 9.34236C23.9057 9.69243 24.3804 9.88909 24.8755 9.88909Z" fill="black"/>
</g>
<defs>
<clipPath id="clip0_1_324">
<rect width="32" height="32" fill="white" transform="translate(1 1)"/>
</clipPath>
</defs>
</svg>

<svg xmlns="http://www.w3.org/2000/svg" width="33" height="33" fill="none"><g fill="#000" clip-path="url(#a)"><path d="M16.591 3.81c4.16 0 4.658.017 6.293.088 1.53.071 2.347.32 2.898.533.73.303 1.245.623 1.796 1.174a4.736 4.736 0 0 1 1.155 1.777c.214.57.48 1.387.534 2.916.089 1.636.106 2.133.106 6.293s-.017 4.658-.089 6.294a8.515 8.515 0 0 1-.533 2.897c-.302.73-.622 1.245-1.173 1.796a4.923 4.923 0 0 1-1.796 1.173c-.55.214-1.369.462-2.898.534-1.635.07-2.133.088-6.293.088s-4.658 0-6.311-.088a8.515 8.515 0 0 1-2.88-.534c-.747-.284-1.244-.622-1.796-1.173-.55-.533-.888-1.067-1.173-1.778a8.658 8.658 0 0 1-.533-2.915c-.071-1.636-.09-2.134-.09-6.294s0-4.658.09-6.293c.07-1.529.32-2.347.533-2.898a4.845 4.845 0 0 1 1.173-1.795 4.736 4.736 0 0 1 1.778-1.156c.57-.213 1.387-.48 2.898-.533 1.653-.09 2.133-.107 6.311-.107Zm0-2.81c-4.231 0-4.764.018-6.435.09-1.654.07-2.792.355-3.787.71a8.148 8.148 0 0 0-2.756 1.814c-.835.87-1.369 1.742-1.795 2.755-.391.996-.658 2.133-.711 3.787C1 11.845 1 12.378 1 16.59c0 4.214.018 4.765.089 6.418.071 1.671.355 2.791.711 3.787a8.045 8.045 0 0 0 1.813 2.773 8.091 8.091 0 0 0 2.756 1.796c.995.39 2.133.657 3.787.71 1.67.09 2.204.107 6.435.107 4.249 0 4.765-.017 6.436-.089 1.653-.07 2.79-.355 3.786-.728a7.59 7.59 0 0 0 2.756-1.796 7.512 7.512 0 0 0 1.795-2.773c.392-.978.658-2.116.73-3.787.07-1.653.088-2.187.088-6.418 0-4.249 0-4.764-.089-6.435a11.5 11.5 0 0 0-.71-3.787 7.59 7.59 0 0 0-1.814-2.755 7.733 7.733 0 0 0-2.756-1.796 11.43 11.43 0 0 0-3.786-.729C20.883 1.003 18.737.974 16.59 1Z"/><path d="M16.644 8.111a8 8 0 1 0 0 16 8 8 0 0 0 0-16Zm0 13.21a5.2 5.2 0 1 1 0-10.4 5.2 5.2 0 0 1 0 10.4Zm8.232-11.432a1.867 1.867 0 1 0 0-3.734 1.867 1.867 0 0 0 0 3.734Z"/></g><defs><clipPath id="a"><path fill="#fff" d="M1 1h32v32H1z"/></clipPath></defs></svg>
